!!!OTL: Trost.
!!!OTL-incipit: DER ALTE GOTT DER LEBET NOCH
!!!ARE: Europa, Mitteleuropa, Deutschland, Rhein
!!!SCT: Z1123
!!!TXL: @@DE
!!!YEM: Copyright 1995, estate of Helmut Schaffrath.
**kern	**text
*ICvox	*
*M2/4	*
*k[b-]	*
*F:	*
!LO:TX:a:t=Vom Rheine.	!
{8fL	Der
8gJ	.
=1	=1
4a	al-
8aL	-te
8b-J	.
=2	=2
4cc/	Gott
4dd/	der
=3	=3
4cc/	le-
4b-/	-bet
=4	=4
4a;}	noch!
{4cc/	was
=5	=5
4dd/	willſt
4ff/	du,
=6	=6
4ee/	Herʒ,
4ee/	ver-
=7	=7
2dd/	-ʒa-
=8	=8
4cc;/}	-gen,
{4cc/	wenn
=9	=9
4ff/	auch
4cc/	der
=10	=10
4dd/	Tag
8aL	dich
8b-J	.
=11	=11
4cc/	quält
4b-/	und
=12	=12
4a;}	drückt,
{4cc/	es
=13	=13
4dd/	müſ-
4cc/	-ſen
=14	=14
4b-/	an-
4a/	-dre
=15	=15
2g	ta-
=16	=16
4f;}	-gen!
==	==
!!!AGN: religioeses Lied
!!!ONB: ESAC (Essen Associative Code) Database: ZUCCAL
!!!AMT: simple duple
!!!AIN: vox
!!!EED: Helmut Schaffrath
!!!EEV: 1.0
!!!GTL: III. Haus- Andacht.
!!!URL-scan: https://www.digitale-sammlungen.de/de/view/bsb11160573?page=269
!!!ENC: Anna Maria Matuszewska
!!!EEV: 2025/02/04
*-	*-
